assets/icons/18px/outline/shield-18px-1.svg

<svg fill="none" height="18" width="18" xmlns="http://www.w3.org/2000/svg"><path d="m2.5 6v7.5c0 .943 0 1.414.293 1.707s.764.293 1.707.293h2.5m-4.5-9.5v-1.5c0-.943 0-1.414.293-1.707s.764-.293 1.707-.293h9c.943 0 1.414 0 1.707.293s.293.764.293 1.707v1.5m-13 0h4.5m8.5 0v7.5c0 .943 0 1.414-.293 1.707s-.764.293-1.707.293h-6.5m8.5-9.5h-8.5m0 0v9.5" stroke="#fff"/></svg>

<svg fill="none" height="18" width="18" xmlns="http://www.w3.org/2000/svg"><path d="M2.5 6v7.5c0 .943 0 1.414.293 1.707s.764.293 1.707.293H7M2.5 6V4.5c0-.943 0-1.414.293-1.707S3.557 2.5 4.5 2.5h9c.943 0 1.414 0 1.707.293s.293.764.293 1.707V6m-13 0H7m8.5 0v7.5c0 .943 0 1.414-.293 1.707s-.764.293-1.707.293H7M15.5 6H7m0 0v9.5" stroke="currentColor"/></svg>
